public/img/moods/content.svg

<?xml version="1.0" encoding="UTF-8" standalone="no"?>
<!-- Generator: Adobe Illustrator 16.0.0, SVG Export Plug-In . SVG Version: 6.00 Build 0)  -->
<!DOCTYPE svg  PUBLIC '-//W3C//DTD SVG 1.1//EN'  'http://www.w3.org/Graphics/SVG/1.1/DTD/svg11.dtd'>
<svg id="Capa_1" style="enable-background:new 0 0 478.2 478.2" xmlns="http://www.w3.org/2000/svg" xml:space="preserve" height="512px" viewBox="0 0 478.2 478.2" width="512px" version="1.1" y="0px" x="0px" xmlns:xlink="http://www.w3.org/1999/xlink">
	<path d="m306 172.1c0-10.5 8.6-19.1 19.1-19.1s19.101 8.6 19.101 19.1-8.601 19.1-19.101 19.1-19.1-8.6-19.1-19.1zm-153 19.1c10.5 0 19.1-8.6 19.1-19.1s-8.6-19.1-19.1-19.1-19.1 8.6-19.1 19.1 8.6 19.1 19.1 19.1zm-19.1 114.8v19.1s38.2 38.2 105.2 38.2 105.2-38.2 105.2-38.2v-19.1s-38.2 38.2-105.2 38.2-105.2-38.2-105.2-38.2zm344.3-66.9c0 132-107.1 239.1-239.1 239.1s-239.1-107.1-239.1-239.1 107.1-239.1 239.1-239.1c131.9 0 239.1 107.1 239.1 239.1zm-19.2 0c0-122.4-97.5-219.9-219.9-219.9s-219.9 97.5-219.9 219.9 97.5 219.9 219.9 219.9 219.9-97.5 219.9-219.9z" fill="#9c55ad"/>
</svg>

<?xml version="1.0" encoding="iso-8859-1"?>
<!-- Generator: Adobe Illustrator 16.0.0, SVG Export Plug-In . SVG Version: 6.00 Build 0)  -->
<!DOCTYPE svg PUBLIC "-//W3C//DTD SVG 1.1//EN" "http://www.w3.org/Graphics/SVG/1.1/DTD/svg11.dtd">
<svg xmlns="http://www.w3.org/2000/svg" xmlns:xlink="http://www.w3.org/1999/xlink" version="1.1" id="Capa_1" x="0px" y="0px" width="512px" height="512px" viewBox="0 0 478.2 478.2" style="enable-background:new 0 0 478.2 478.2;" xml:space="preserve">
<g>
	<path d="M306,172.1c0-10.5,8.6-19.1,19.1-19.1s19.101,8.6,19.101,19.1s-8.601,19.1-19.101,19.1S306,182.6,306,172.1z M153,191.2   c10.5,0,19.1-8.6,19.1-19.1S163.5,153,153,153s-19.1,8.6-19.1,19.1S142.5,191.2,153,191.2z M133.9,306v19.1   c0,0,38.2,38.2,105.2,38.2c67,0,105.2-38.2,105.2-38.2V306c0,0-38.2,38.2-105.2,38.2C172.1,344.2,133.9,306,133.9,306z    M478.2,239.1C478.2,371.1,371.1,478.2,239.1,478.2C107.1,478.2,0,371.1,0,239.1C0,107.1,107.1,0,239.1,0   C371,0,478.2,107.1,478.2,239.1z M459,239.1C459,116.7,361.5,19.2,239.1,19.2C116.7,19.2,19.2,116.7,19.2,239.1   C19.2,361.5,116.7,459,239.1,459C361.5,459,459,361.5,459,239.1z" fill="#9c55ad"/>
</g>
<g>
</g>
<g>
</g>
<g>
</g>
<g>
</g>
<g>
</g>
<g>
</g>
<g>
</g>
<g>
</g>
<g>
</g>
<g>
</g>
<g>
</g>
<g>
</g>
<g>
</g>
<g>
</g>
<g>
</g>
</svg>
